X:29
T:The Apprentice.aka. RDO.29
T:Country Dance. RDO.29
M:4/4
L:1/8
Q:1/2=90
S:Robert D. Owen MS,Indiana,1826.
R:.Misc.
O:Indiana,USA
A:New Harmony
N:My title. Titled only “Country Dance” in MS.
Z:vmp.Chris Partington
K:D
A|:d2dc BABc|d2de fafc|d2dc BABc|dfeg fdec:|!
d2df afdf|egbg ecAc|d2df afdf|edef dcBA|!
d2df afdf|egbg ecAc|d2df afge|fdec dcBA|]

